X:22
T:Earl of Mansfield, The 
C:Joe Buchanan's Scottish Tome - Page 096.2
I:096 2
R:Barndance
Z:Carl Allison
L:1/8
M:2/4
K:D
(f/>e/) | "D"d>e dA | "D"d>ef>g ag/>f/ | "A7"e>f eA | "A"c(e/f/) g(f/e/) |
"D"d>e dA | "D"d>ef>g a(g/>f/) | "A7"ge cA | "D"d2 d<d :|
(a/>g/) | "D"f>g fA | "D"d>ef>g a(g/>f/) | "A7"e>f eA | "A"c(e/f/) g(f/e/) |
"D"f>g fA | "D"d>ef>g a(g/>f/) | "A7"ge cA | "D"d2 d<d :|
(a/>g/) | "D"fd d(a/>g/) | "D"fd d(e/>f/) | "A7"gA ce | "A"cA A([1a/>g/) |
[1"D"fd d(a/>g/) | "D"fd d(e/>f/) | "A7"gA ce | "D"d d<d :|
[2(B/>c/) |[2 "D"d>e dA | "D"d>ef>g a(g/>f/) | "A7"ge cA | "D"d2 d<d |]

